icons/linear-ele-arrow-left.svg

<svg xmlns="http://www.w3.org/2000/svg" width="32px" height="32px" viewBox="0 0 32 32" version="1.1">
    <title>linear-ele-arrow-left</title>
    <g id="linear-ele-arrow-left" stroke-width="1" fill-rule="evenodd">
        <path d="M15.2071068,6.29289322 C15.5976311,6.68341751 15.5976311,7.31658249 15.2071068,7.70710678 L7.915,15 L26.5,15 C27.0522847,15 27.5,15.4477153 27.5,16 C27.5,16.5522847 27.0522847,17 26.5,17 L7.915,17 L15.2071068,24.2928932 C15.5675907,24.6533772 15.5953203,25.2206082 15.2902954,25.6128994 L15.2071068,25.7071068 C14.8165825,26.0976311 14.1834175,26.0976311 13.7928932,25.7071068 L4.79289322,16.7071068 C4.40236893,16.3165825 4.40236893,15.6834175 4.79289322,15.2928932 L13.7928932,6.29289322 C14.1834175,5.90236893 14.8165825,5.90236893 15.2071068,6.29289322 Z" id="&#36335;&#24452;" fill-rule="nonzero" />
    </g>
</svg>

<svg xmlns="http://www.w3.org/2000/svg" viewBox="0 0 32 32"><path fill="currentColor" d="M15.207 6.293a1 1 0 0 1 0 1.414L7.915 15H26.5a1 1 0 0 1 0 2H7.915l7.292 7.293a1 1 0 0 1 .083 1.32l-.083.094a1 1 0 0 1-1.414 0l-9-9a1 1 0 0 1 0-1.414l9-9a1 1 0 0 1 1.414 0"/></svg>
